icons/numix/32x32/mimetypes/wps-office-dps.svg

<?xml version="1.0" encoding="UTF-8" standalone="no"?>
<svg
   xmlns:dc="http://purl.org/dc/elements/1.1/"
   xmlns:cc="http://creativecommons.org/ns#"
   xmlns:rdf="http://www.w3.org/1999/02/22-rdf-syntax-ns#"
   xmlns:svg="http://www.w3.org/2000/svg"
   xmlns="http://www.w3.org/2000/svg"
   xmlns:sodipodi="http://sodipodi.sourceforge.net/DTD/sodipodi-0.dtd"
   xmlns:inkscape="http://www.inkscape.org/namespaces/inkscape"
   width="32"
   height="32"
   viewBox="0 0 32 32"
   id="svg2"
   version="1.1"
   inkscape:version="0.48.5 r10040"
   sodipodi:docname="wps-office-dps.svg">
  <metadata
     id="metadata34">
    <rdf:RDF>
      <cc:Work
         rdf:about="">
        <dc:format>image/svg+xml</dc:format>
        <dc:type
           rdf:resource="http://purl.org/dc/dcmitype/StillImage" />
      </cc:Work>
    </rdf:RDF>
  </metadata>
  <defs
     id="defs32" />
  <sodipodi:namedview
     pagecolor="#ffffff"
     bordercolor="#666666"
     borderopacity="1"
     objecttolerance="10"
     gridtolerance="10"
     guidetolerance="10"
     inkscape:pageopacity="0"
     inkscape:pageshadow="2"
     inkscape:window-width="1280"
     inkscape:window-height="970"
     id="namedview30"
     showgrid="true"
     inkscape:zoom="16"
     inkscape:cx="11.18857"
     inkscape:cy="11.393069"
     inkscape:window-x="0"
     inkscape:window-y="0"
     inkscape:window-maximized="1"
     inkscape:current-layer="svg2">
    <inkscape:grid
       type="xygrid"
       id="grid3091" />
  </sodipodi:namedview>
  <path
     style="fill:#d14626;fill-opacity:1"
     d="M 5.335888,2.966e-4 C 4.648414,3.116e-4 4,0.6767876 4,1.3940316 L 4,30.606268 C 4,31.282757 4.687474,32 5.335888,32 l 21.327332,0 c 0.648414,0 1.335888,-0.717243 1.335888,-1.393732 L 28,8.9999996 l -9,-9 z"
     id="path4-1"
     inkscape:connector-curvature="0"
     sodipodi:nodetypes="ssssssccs" />
  <path
     style="fill:#000000;fill-opacity:0.19599998"
     d="M 21,8.9999996 28,16 28,8.9999996 z"
     id="path6-4"
     inkscape:connector-curvature="0"
     sodipodi:nodetypes="cccc" />
  <path
     style="fill:#ffffff;fill-opacity:0.39200003"
     d="m 19.000306,2.966e-4 8.991594,8.999703 -7.613262,0 c -0.672951,0 -1.378332,-0.7134896 -1.378332,-1.3864402 z"
     id="path8-6"
     inkscape:connector-curvature="0"
     sodipodi:nodetypes="ccssc" />
  <path
     style="fill:#000000;fill-opacity:0.19599998"
     d="m 4,24 0,6.667969 C 4,31.316407 4.6875,32 5.332031,32 l 21.335938,0 C 27.3125,32 28,31.316407 28,30.667969 L 28,24 z"
     id="path20"
     inkscape:connector-curvature="0" />
  <path
     style="fill:#ffffff"
     inkscape:connector-curvature="0"
     id="path3009"
     d="m 8,12 5,0 0,3 -5,0 z" />
  <g
     style="fill:#ffffff"
     id="g22"
     transform="matrix(1.0495115,0,0,1.0495115,-0.79407292,-0.37597039)">
    <path
       d="m 10.5,29.066406 c 0.03125,0.0078 0.06641,0.0078 0.105469,0.0078 0.03516,0 0.07031,0 0.101562,0 0.265625,0 0.488281,-0.04297 0.664063,-0.132813 0.183594,-0.08594 0.328125,-0.207031 0.4375,-0.363281 0.113281,-0.152344 0.191406,-0.332031 0.238281,-0.542969 0.05078,-0.214844 0.07422,-0.449218 0.07422,-0.703125 0,-0.21875 -0.01953,-0.433593 -0.05469,-0.644531 -0.03906,-0.207031 -0.105468,-0.390625 -0.199218,-0.550781 -0.09766,-0.160157 -0.226563,-0.285157 -0.390626,-0.378907 -0.164062,-0.101562 -0.375,-0.148437 -0.636718,-0.148437 -0.05078,0 -0.105469,0 -0.167969,0.0078 -0.06641,0 -0.121094,0.0039 -0.171875,0.01562 l 0,3.433594 m 2.808594,-1.734375 c 0,0.472657 -0.07031,0.878907 -0.210938,1.214844 -0.132812,0.332031 -0.320312,0.601563 -0.558594,0.808594 -0.242187,0.210937 -0.527343,0.363281 -0.863281,0.460937 -0.328125,0.09375 -0.691406,0.140625 -1.089843,0.140625 -0.210938,0 -0.414063,-0.0078 -0.617188,-0.03125 -0.195312,-0.01563 -0.40625,-0.04687 -0.636719,-0.08984 l 0,-4.988282 c 0.265625,-0.05078 0.515625,-0.08203 0.75,-0.09766 0.234375,-0.01563 0.453125,-0.02734 0.65625,-0.02734 0.382813,0 0.734375,0.05078 1.050781,0.148438 0.324219,0.101562 0.59375,0.257812 0.816407,0.472656 0.222656,0.207031 0.390625,0.480469 0.511719,0.808594 0.125,0.324218 0.191406,0.71875 0.191406,1.179687"
       id="path24"
       inkscape:connector-curvature="0" />
    <path
       d="m 15.6875,24.722656 c 0.746094,0 1.324219,0.136719 1.734375,0.40625 0.410156,0.265625 0.617187,0.699219 0.617187,1.304688 0,0.609375 -0.207031,1.054687 -0.625,1.328125 -0.410156,0.269531 -0.996093,0.40625 -1.753906,0.40625 l -0.417968,0 0,1.722656 -1.167969,0 0,-5.042969 c 0.113281,-0.01953 0.242187,-0.03906 0.378906,-0.05859 0.148437,-0.01562 0.292969,-0.02734 0.4375,-0.03125 0.144531,-0.01172 0.289063,-0.01953 0.425781,-0.02344 0.140625,-0.0078 0.261719,-0.01172 0.371094,-0.01172 m 0.132812,0.886719 c -0.07031,0 -0.167968,0 -0.292968,0.0078 -0.121094,0 -0.214844,0.0039 -0.285156,0.01562 l 0,1.652344 0.472656,0 c 0.375,0 0.65625,-0.06641 0.84375,-0.191406 0.191406,-0.132812 0.285156,-0.355469 0.285156,-0.667969 0,-0.296875 -0.09375,-0.507812 -0.285156,-0.628906 -0.183594,-0.125 -0.429688,-0.1875 -0.738282,-0.1875"
       id="path26"
       inkscape:connector-curvature="0" />
    <path
       d="m 20.503906,29.148438 c 0.195313,0 0.359375,-0.01563 0.484375,-0.04688 0.132813,-0.03906 0.238281,-0.08984 0.3125,-0.148437 0.07422,-0.06641 0.125,-0.140625 0.152344,-0.214844 0.03125,-0.08594 0.04687,-0.167969 0.04687,-0.25 0,-0.105469 -0.03516,-0.199219 -0.105469,-0.28125 -0.06641,-0.08203 -0.15625,-0.152343 -0.265625,-0.214843 -0.105468,-0.06641 -0.226562,-0.121094 -0.359375,-0.171876 -0.132812,-0.05469 -0.265625,-0.105468 -0.398437,-0.148437 -0.175782,-0.05469 -0.359375,-0.117187 -0.550782,-0.191406 -0.1875,-0.07031 -0.363281,-0.160157 -0.519531,-0.269531 -0.152343,-0.113282 -0.277343,-0.246094 -0.378906,-0.40625 -0.101563,-0.164063 -0.152344,-0.367188 -0.152344,-0.609376 0,-0.480468 0.175781,-0.855468 0.53125,-1.125 0.359375,-0.269531 0.851563,-0.402343 1.480469,-0.402343 0.359375,0 0.671875,0.03516 0.9375,0.105469 0.269531,0.07031 0.5,0.152343 0.683594,0.238281 l -0.34375,0.785156 c -0.15625,-0.07813 -0.332032,-0.140625 -0.53125,-0.199219 -0.1875,-0.05469 -0.410156,-0.08203 -0.664063,-0.08203 -0.617187,0 -0.929687,0.195313 -0.929687,0.585937 0,0.101563 0.03516,0.1875 0.09766,0.265626 0.0625,0.07031 0.140625,0.136718 0.234375,0.199218 0.101563,0.05469 0.214844,0.105469 0.332031,0.148438 0.128906,0.04297 0.25,0.08594 0.371094,0.121094 0.183594,0.0625 0.375,0.132812 0.570312,0.207031 0.203126,0.07422 0.382813,0.171875 0.550782,0.296875 0.167968,0.121094 0.308594,0.277344 0.414062,0.464844 0.109375,0.179687 0.164063,0.410156 0.164063,0.691406 0,0.480468 -0.179688,0.851562 -0.542969,1.117187 C 21.773438,29.871094 21.230469,30 20.503906,30 c -0.484375,0 -0.875,-0.04297 -1.164062,-0.132812 -0.292969,-0.09375 -0.511719,-0.179688 -0.65625,-0.253907 l 0.339844,-0.828125 c 0.171874,0.08984 0.375,0.171875 0.609374,0.25 0.238282,0.07422 0.53125,0.113282 0.871094,0.113282"
       id="path28"
       inkscape:connector-curvature="0" />
  </g>
  <path
     style="fill:#ffffff"
     inkscape:connector-curvature="0"
     id="path3011"
     d="m 8,17 5,0 0,3 -5,0 z" />
  <path
     style="fill:#ffffff"
     inkscape:connector-curvature="0"
     id="path3015"
     d="M 20,10.992539 20,15 l 4,0 c 0,-2.214356 -1.791478,-4.007461 -4,-4.007461 z" />
  <path
     style="fill:#ffffff"
     inkscape:connector-curvature="0"
     id="path3017"
     d="M 19.001814,12 C 16.792291,12 15,13.789768 15,16 c 0,2.210233 1.792291,4 4.001814,4 C 21.211338,20 23,18.210233 23,16 l -3.998186,0 z" />
</svg>

<svg width="32" xmlns="http://www.w3.org/2000/svg" height="32" viewBox="0 0 32 32" xmlns:xlink="http://www.w3.org/1999/xlink">
<path style="fill:#d14626" d="M 5.332031 0.667969 C 4.648438 0.667969 4 1.3125 4 2 L 4 30 C 4 30.648438 4.6875 31.332031 5.332031 31.332031 L 26.667969 31.332031 C 27.3125 31.332031 28 30.648438 28 30 L 28 9.332031 L 19.332031 0.667969 Z "/>
<path style="fill:#000;fill-opacity:.196" d="M 19.332031 8 L 19.375 8.042969 L 19.480469 8 Z M 20.667969 9.332031 L 28 16.667969 L 28 9.332031 Z "/>
<path style="fill:#fff;fill-opacity:.392" d="M 19.332031 0.667969 L 28 9.332031 L 20.667969 9.332031 C 20.019531 9.332031 19.332031 8.648438 19.332031 8 Z "/>
<g style="fill:#fff">
<path d="M 8 10.667969 L 12.667969 10.667969 L 12.667969 14 L 8 14 Z "/>
<path d="M 8 16 L 12.667969 16 L 12.667969 19.332031 L 8 19.332031 Z "/>
<path d="M 19.691406 10.667969 L 19.691406 14.867188 L 24 14.867188 C 24 12.546875 22.070312 10.667969 19.691406 10.667969 Z "/>
<path d="M 19.078125 11.265625 C 16.699219 11.265625 14.769531 13.148438 14.769531 15.464844 C 14.769531 17.785156 16.699219 19.667969 19.078125 19.667969 C 21.457031 19.667969 23.382812 17.785156 23.382812 15.464844 L 19.078125 15.464844 Z "/>
</g>
<path style="fill:#000;fill-opacity:.196" d="M 4 23.332031 L 4 30 C 4 30.648438 4.6875 31.332031 5.332031 31.332031 L 26.667969 31.332031 C 27.3125 31.332031 28 30.648438 28 30 L 28 23.332031 Z "/>
<g style="fill:#fff">
<path d="M 10.5 29.066406 C 10.53125 29.074219 10.566406 29.074219 10.605469 29.074219 C 10.640625 29.074219 10.675781 29.074219 10.707031 29.074219 C 10.972656 29.074219 11.195312 29.03125 11.371094 28.941406 C 11.554688 28.855469 11.699219 28.734375 11.808594 28.578125 C 11.921875 28.425781 12 28.246094 12.046875 28.035156 C 12.097656 27.820312 12.121094 27.585938 12.121094 27.332031 C 12.121094 27.113281 12.101562 26.898438 12.066406 26.6875 C 12.027344 26.480469 11.960938 26.296875 11.867188 26.136719 C 11.769531 25.976562 11.640625 25.851562 11.476562 25.757812 C 11.3125 25.65625 11.101562 25.609375 10.839844 25.609375 C 10.789062 25.609375 10.734375 25.609375 10.671875 25.617188 C 10.605469 25.617188 10.550781 25.621094 10.5 25.632812 L 10.5 29.066406 M 13.308594 27.332031 C 13.308594 27.804688 13.238281 28.210938 13.097656 28.546875 C 12.964844 28.878906 12.777344 29.148438 12.539062 29.355469 C 12.296875 29.566406 12.011719 29.71875 11.675781 29.816406 C 11.347656 29.910156 10.984375 29.957031 10.585938 29.957031 C 10.375 29.957031 10.171875 29.949219 9.96875 29.925781 C 9.773438 29.910156 9.5625 29.878906 9.332031 29.835938 L 9.332031 24.847656 C 9.597656 24.796875 9.847656 24.765625 10.082031 24.75 C 10.316406 24.734375 10.535156 24.722656 10.738281 24.722656 C 11.121094 24.722656 11.472656 24.773438 11.789062 24.871094 C 12.113281 24.972656 12.382812 25.128906 12.605469 25.34375 C 12.828125 25.550781 12.996094 25.824219 13.117188 26.152344 C 13.242188 26.476562 13.308594 26.871094 13.308594 27.332031 "/>
<path d="M 15.6875 24.722656 C 16.433594 24.722656 17.011719 24.859375 17.421875 25.128906 C 17.832031 25.394531 18.039062 25.828125 18.039062 26.433594 C 18.039062 27.042969 17.832031 27.488281 17.414062 27.761719 C 17.003906 28.03125 16.417969 28.167969 15.660156 28.167969 L 15.242188 28.167969 L 15.242188 29.890625 L 14.074219 29.890625 L 14.074219 24.847656 C 14.1875 24.828125 14.316406 24.808594 14.453125 24.789062 C 14.601562 24.773438 14.746094 24.761719 14.890625 24.757812 C 15.035156 24.746094 15.179688 24.738281 15.316406 24.734375 C 15.457031 24.726562 15.578125 24.722656 15.6875 24.722656 M 15.820312 25.609375 C 15.75 25.609375 15.652344 25.609375 15.527344 25.617188 C 15.40625 25.617188 15.3125 25.621094 15.242188 25.632812 L 15.242188 27.285156 L 15.714844 27.285156 C 16.089844 27.285156 16.371094 27.21875 16.558594 27.09375 C 16.75 26.960938 16.84375 26.738281 16.84375 26.425781 C 16.84375 26.128906 16.75 25.917969 16.558594 25.796875 C 16.375 25.671875 16.128906 25.609375 15.820312 25.609375 "/>
<path d="M 20.503906 29.148438 C 20.699219 29.148438 20.863281 29.132812 20.988281 29.101562 C 21.121094 29.0625 21.226562 29.011719 21.300781 28.953125 C 21.375 28.886719 21.425781 28.8125 21.453125 28.738281 C 21.484375 28.652344 21.5 28.570312 21.5 28.488281 C 21.5 28.382812 21.464844 28.289062 21.394531 28.207031 C 21.328125 28.125 21.238281 28.054688 21.128906 27.992188 C 21.023438 27.925781 20.902344 27.871094 20.769531 27.820312 C 20.636719 27.765625 20.503906 27.714844 20.371094 27.671875 C 20.195312 27.617188 20.011719 27.554688 19.820312 27.480469 C 19.632812 27.410156 19.457031 27.320312 19.300781 27.210938 C 19.148438 27.097656 19.023438 26.964844 18.921875 26.804688 C 18.820312 26.640625 18.769531 26.4375 18.769531 26.195312 C 18.769531 25.714844 18.945312 25.339844 19.300781 25.070312 C 19.660156 24.800781 20.152344 24.667969 20.78125 24.667969 C 21.140625 24.667969 21.453125 24.703125 21.71875 24.773438 C 21.988281 24.84375 22.21875 24.925781 22.402344 25.011719 L 22.058594 25.796875 C 21.902344 25.71875 21.726562 25.65625 21.527344 25.597656 C 21.339844 25.542969 21.117188 25.515625 20.863281 25.515625 C 20.246094 25.515625 19.933594 25.710938 19.933594 26.101562 C 19.933594 26.203125 19.96875 26.289062 20.03125 26.367188 C 20.09375 26.4375 20.171875 26.503906 20.265625 26.566406 C 20.367188 26.621094 20.480469 26.671875 20.597656 26.714844 C 20.726562 26.757812 20.847656 26.800781 20.96875 26.835938 C 21.152344 26.898438 21.34375 26.96875 21.539062 27.042969 C 21.742188 27.117188 21.921875 27.214844 22.089844 27.339844 C 22.257812 27.460938 22.398438 27.617188 22.503906 27.804688 C 22.613281 27.984375 22.667969 28.214844 22.667969 28.496094 C 22.667969 28.976562 22.488281 29.347656 22.125 29.613281 C 21.773438 29.871094 21.230469 30 20.503906 30 C 20.019531 30 19.628906 29.957031 19.339844 29.867188 C 19.046875 29.773438 18.828125 29.6875 18.683594 29.613281 L 19.023438 28.785156 C 19.195312 28.875 19.398438 28.957031 19.632812 29.035156 C 19.871094 29.109375 20.164062 29.148438 20.503906 29.148438 "/>
</g>
</svg>
